img/tablet__news.svg

<svg xmlns="http://www.w3.org/2000/svg" width="295" height="302" fill="none"><mask id="a" width="295" height="302" x="0" y="0" maskUnits="userSpaceOnUse" style="mask-type:alpha"><path fill="#D9D9D9" d="M0 0h294.81v301.806H0z"/></mask><g mask="url(#a)"><path fill="url(#b)" d="m141.827 201.239 6.658-5.247v134.406h-6.658V201.239Z"/><path fill="url(#c)" d="M164.328 185.481v144.918h-6.607v-18.658h3.304v-90.393l-3.304 2.624v-33.261l6.607-5.23Z"/><path fill="url(#d)" d="M180.222 174.952v155.447h-6.641v-18.658h3.304v-100.87l-3.304 2.624v-33.261l6.641-5.282Z"/><path fill="url(#e)" d="M196.099 164.439v165.959h-6.657V311.74h3.32V200.341l-3.32 2.589v-33.243l6.657-5.248Z"/><path fill="url(#f)" d="M211.976 153.875v176.522h-6.657v-18.658h3.303V189.794l-3.303 2.606v-33.243l6.657-5.282Z"/><path fill="url(#g)" d="M227.854 143.364v187.034h-6.658v-18.659h3.354V179.231l-3.354 2.658v-33.243l6.658-5.282Z"/><path fill="url(#h)" d="M244.203 145.263v185.135h-7.602V311.74h3.776V176.902l-3.776-1.623v-33.243l7.602 3.227Z"/><path fill="url(#i)" d="M260.08 151.788v178.61h-7.601V311.74h3.775V183.426l-3.775-1.657v-33.244l7.601 3.263Z"/><path fill="url(#j)" d="M275.941 158.312v172.086h-7.585v-18.659h3.775V189.915l-3.775-1.622v-33.244l7.585 3.263Z"/><path fill="url(#k)" d="M291.818 164.837v165.562h-7.585V311.74h3.809V196.441l-3.809-1.606v-33.26l7.585 3.262Z"/></g><defs><linearGradient id="b" x1="145.156" x2="131.301" y1="195.992" y2="308.354" gradientUnits="userSpaceOnUse"><stop stop-color="#DBBC9A" stop-opacity=".27"/><stop offset="1" stop-color="#DBBC9A" stop-opacity="0"/></linearGradient><linearGradient id="c" x1="161.025" x2="144.839" y1="185.481" y2="306.305" gradientUnits="userSpaceOnUse"><stop stop-color="#DBBC9A" stop-opacity=".27"/><stop offset="1" stop-color="#DBBC9A" stop-opacity="0"/></linearGradient><linearGradient id="d" x1="176.902" x2="158.418" y1="174.952" y2="304.238" gradientUnits="userSpaceOnUse"><stop stop-color="#DBBC9A" stop-opacity=".27"/><stop offset="1" stop-color="#DBBC9A" stop-opacity="0"/></linearGradient><linearGradient id="e" x1="192.771" x2="171.813" y1="164.439" y2="302.098" gradientUnits="userSpaceOnUse"><stop stop-color="#DBBC9A" stop-opacity=".27"/><stop offset="1" stop-color="#DBBC9A" stop-opacity="0"/></linearGradient><linearGradient id="f" x1="208.648" x2="185.007" y1="153.875" y2="299.861" gradientUnits="userSpaceOnUse"><stop stop-color="#DBBC9A" stop-opacity=".27"/><stop offset="1" stop-color="#DBBC9A" stop-opacity="0"/></linearGradient><linearGradient id="g" x1="224.525" x2="198.068" y1="143.364" y2="297.56" gradientUnits="userSpaceOnUse"><stop stop-color="#DBBC9A" stop-opacity=".27"/><stop offset="1" stop-color="#DBBC9A" stop-opacity="0"/></linearGradient><linearGradient id="h" x1="240.402" x2="216.75" y1="142.036" y2="298.319" gradientUnits="userSpaceOnUse"><stop stop-color="#DBBC9A" stop-opacity=".27"/><stop offset="1" stop-color="#DBBC9A" stop-opacity="0"/></linearGradient><linearGradient id="i" x1="256.279" x2="234.195" y1="148.525" y2="299.654" gradientUnits="userSpaceOnUse"><stop stop-color="#DBBC9A" stop-opacity=".27"/><stop offset="1" stop-color="#DBBC9A" stop-opacity="0"/></linearGradient><linearGradient id="j" x1="272.148" x2="251.546" y1="155.049" y2="300.958" gradientUnits="userSpaceOnUse"><stop stop-color="#DBBC9A" stop-opacity=".27"/><stop offset="1" stop-color="#DBBC9A" stop-opacity="0"/></linearGradient><linearGradient id="k" x1="288.025" x2="268.9" y1="161.575" y2="302.256" gradientUnits="userSpaceOnUse"><stop stop-color="#DBBC9A" stop-opacity=".27"/><stop offset="1" stop-color="#DBBC9A" stop-opacity="0"/></linearGradient></defs></svg>

<svg width="295" height="302" viewBox="0 0 295 302" fill="none" xmlns="http://www.w3.org/2000/svg">
<mask id="mask0_421_3231" style="mask-type:alpha" maskUnits="userSpaceOnUse" x="0" y="0" width="295" height="302">
<rect x="6.10352e-05" width="294.81" height="301.806" fill="#D9D9D9"/>
</mask>
<g mask="url(#mask0_421_3231)">
<path d="M141.827 201.239L148.485 195.992V330.398H141.827V201.239Z" fill="url(#paint0_linear_421_3231)"/>
<path d="M164.328 185.481V330.399H157.721V311.741H161.025V221.348L157.721 223.972V190.711L164.328 185.481Z" fill="url(#paint1_linear_421_3231)"/>
<path d="M180.222 174.952V330.399H173.581V311.741H176.885V210.871L173.581 213.495V180.234L180.222 174.952Z" fill="url(#paint2_linear_421_3231)"/>
<path d="M196.099 164.439V330.398H189.442V311.74H192.762V200.341L189.442 202.93V169.687L196.099 164.439Z" fill="url(#paint3_linear_421_3231)"/>
<path d="M211.976 153.875V330.397H205.319V311.739H208.622V189.794L205.319 192.4V159.157L211.976 153.875Z" fill="url(#paint4_linear_421_3231)"/>
<path d="M227.854 143.364V330.398H221.196V311.739H224.55V179.231L221.196 181.889V148.646L227.854 143.364Z" fill="url(#paint5_linear_421_3231)"/>
<path d="M244.203 145.263V330.398H236.601V311.74H240.377V176.902L236.601 175.279V142.036L244.203 145.263Z" fill="url(#paint6_linear_421_3231)"/>
<path d="M260.08 151.788V330.398H252.479V311.74H256.254V183.426L252.479 181.769V148.525L260.08 151.788Z" fill="url(#paint7_linear_421_3231)"/>
<path d="M275.941 158.312V330.398H268.356V311.739H272.131V189.915L268.356 188.293V155.049L275.941 158.312Z" fill="url(#paint8_linear_421_3231)"/>
<path d="M291.818 164.837V330.399H284.233V311.74H288.042V196.441L284.233 194.835V161.575L291.818 164.837Z" fill="url(#paint9_linear_421_3231)"/>
</g>
<defs>
<linearGradient id="paint0_linear_421_3231" x1="145.156" y1="195.992" x2="131.301" y2="308.354" gradientUnits="userSpaceOnUse">
<stop stop-color="#DBBC9A" stop-opacity="0.27"/>
<stop offset="1" stop-color="#DBBC9A" stop-opacity="0"/>
</linearGradient>
<linearGradient id="paint1_linear_421_3231" x1="161.025" y1="185.481" x2="144.839" y2="306.305" gradientUnits="userSpaceOnUse">
<stop stop-color="#DBBC9A" stop-opacity="0.27"/>
<stop offset="1" stop-color="#DBBC9A" stop-opacity="0"/>
</linearGradient>
<linearGradient id="paint2_linear_421_3231" x1="176.902" y1="174.952" x2="158.418" y2="304.238" gradientUnits="userSpaceOnUse">
<stop stop-color="#DBBC9A" stop-opacity="0.27"/>
<stop offset="1" stop-color="#DBBC9A" stop-opacity="0"/>
</linearGradient>
<linearGradient id="paint3_linear_421_3231" x1="192.771" y1="164.439" x2="171.813" y2="302.098" gradientUnits="userSpaceOnUse">
<stop stop-color="#DBBC9A" stop-opacity="0.27"/>
<stop offset="1" stop-color="#DBBC9A" stop-opacity="0"/>
</linearGradient>
<linearGradient id="paint4_linear_421_3231" x1="208.648" y1="153.875" x2="185.007" y2="299.861" gradientUnits="userSpaceOnUse">
<stop stop-color="#DBBC9A" stop-opacity="0.27"/>
<stop offset="1" stop-color="#DBBC9A" stop-opacity="0"/>
</linearGradient>
<linearGradient id="paint5_linear_421_3231" x1="224.525" y1="143.364" x2="198.068" y2="297.56" gradientUnits="userSpaceOnUse">
<stop stop-color="#DBBC9A" stop-opacity="0.27"/>
<stop offset="1" stop-color="#DBBC9A" stop-opacity="0"/>
</linearGradient>
<linearGradient id="paint6_linear_421_3231" x1="240.402" y1="142.036" x2="216.75" y2="298.319" gradientUnits="userSpaceOnUse">
<stop stop-color="#DBBC9A" stop-opacity="0.27"/>
<stop offset="1" stop-color="#DBBC9A" stop-opacity="0"/>
</linearGradient>
<linearGradient id="paint7_linear_421_3231" x1="256.279" y1="148.525" x2="234.195" y2="299.654" gradientUnits="userSpaceOnUse">
<stop stop-color="#DBBC9A" stop-opacity="0.27"/>
<stop offset="1" stop-color="#DBBC9A" stop-opacity="0"/>
</linearGradient>
<linearGradient id="paint8_linear_421_3231" x1="272.148" y1="155.049" x2="251.546" y2="300.958" gradientUnits="userSpaceOnUse">
<stop stop-color="#DBBC9A" stop-opacity="0.27"/>
<stop offset="1" stop-color="#DBBC9A" stop-opacity="0"/>
</linearGradient>
<linearGradient id="paint9_linear_421_3231" x1="288.025" y1="161.575" x2="268.9" y2="302.256" gradientUnits="userSpaceOnUse">
<stop stop-color="#DBBC9A" stop-opacity="0.27"/>
<stop offset="1" stop-color="#DBBC9A" stop-opacity="0"/>
</linearGradient>
</defs>
</svg>
